X: 5
T: The Mountain Road
R: reel
M: 4/4
L: 1/8
K: Gmaj
|:B2 dBeB dB | B2 dB ABGA | B2 dB eBdB | cABG AGEG |
B2 dBeB dB | B2 dB ABGA | Bd d2 edBd | egfa g4 ||
|:g3e dG (3Bcd | g3a bgaf | g3e dG (3Bcd | cABG AGEG |
g3e dG (3Bcd | g3a bgaf | g3e dG (3Bcd | cABG AGEG ||


Tune 68	Setting 24722

